X:30
T:Ich ging an einem...
B:Frau Nachtigall (Straburg - 1928)
Z:<anamnese@laposte.net> -- http://anamnese.fr.st
N:p.95
M:C
L:1/4
Q:1/4=150
K:G
D | "G"G DD G/-G/ | "C"(G E/A/) A > G | "D"F d/-d/ d c/d/ |
 "G"B2 z (G/B/) | "G"d B/-B/ d/ B/ d/ B/ | "D"(A>B) AA | 
"G"GB"F#x"A"Ex"G | "D"F"A7"A"D"D d/e/ | "G"d/c/ B "D"d/e/ d/c/ | "G"B2 z |]
